svgs/solid/list-radio.svg

<svg xmlns="http://www.w3.org/2000/svg" viewBox="0 0 512 512"><!-- Font Awesome Pro 6.0.0-alpha2 by @fontawesome - https://fontawesome.com License - https://fontawesome.com/license (Commercial License) --><path d="M64 192C28.654 192 0 220.656 0 256S28.654 320 64 320C99.348 320 128 291.344 128 256S99.348 192 64 192ZM64 280C50.768 280 40 269.232 40 256C40 242.766 50.768 232 64 232C77.234 232 88 242.766 88 256C88 269.232 77.234 280 64 280ZM64 352C28.654 352 0 380.656 0 416S28.654 480 64 480C99.348 480 128 451.344 128 416S99.348 352 64 352ZM64 440C50.768 440 40 429.232 40 416C40 402.766 50.768 392 64 392C77.234 392 88 402.766 88 416C88 429.232 77.234 440 64 440ZM99.783 42.932C89.568 36.031 77.254 32 64 32C28.654 32 0 60.656 0 96S28.654 160 64 160C77.254 160 89.568 155.971 99.783 149.068C106.594 144.469 112.471 138.592 117.07 131.781C123.971 121.566 128 109.254 128 96S123.971 70.434 117.07 60.219C112.471 53.41 106.594 47.533 99.783 42.932ZM192 128H480C497.674 128 512 113.674 512 96S497.674 64 480 64H192C174.326 64 160 78.326 160 96S174.326 128 192 128ZM480 224H192C174.326 224 160 238.326 160 256S174.326 288 192 288H480C497.674 288 512 273.674 512 256S497.674 224 480 224ZM480 384H192C174.326 384 160 398.326 160 416S174.326 448 192 448H480C497.674 448 512 433.674 512 416S497.674 384 480 384Z"/></svg>

<svg xmlns="http://www.w3.org/2000/svg" viewBox="0 0 512 512"><!--! Font Awesome Pro 6.3.0 by @fontawesome - https://fontawesome.com License - https://fontawesome.com/license (Commercial License) Copyright 2023 Fonticons, Inc. --><path d="M64 160A64 64 0 1 0 64 32a64 64 0 1 0 0 128zM192 64c-17.7 0-32 14.3-32 32s14.3 32 32 32H480c17.7 0 32-14.3 32-32s-14.3-32-32-32H192zm0 160c-17.7 0-32 14.3-32 32s14.3 32 32 32H480c17.7 0 32-14.3 32-32s-14.3-32-32-32H192zm0 160c-17.7 0-32 14.3-32 32s14.3 32 32 32H480c17.7 0 32-14.3 32-32s-14.3-32-32-32H192zM40 416a24 24 0 1 1 48 0 24 24 0 1 1 -48 0zm88 0A64 64 0 1 0 0 416a64 64 0 1 0 128 0zM64 232a24 24 0 1 1 0 48 24 24 0 1 1 0-48zm0 88a64 64 0 1 0 0-128 64 64 0 1 0 0 128z"/></svg>
